X: 21758
T: King Of The Fairies
R: hornpipe
M: 4/4
K: Edorian
B,2|:EDEF GFGA|B2B2 G3A|B2E2 EFG/F/E|FGFE D2B,2|
EDEF GFGA|BAG/A/B d3=c|B2E2 GFED|1 E2F/E/D E2B,2:|2 E2F/E/D E2d2||
e2e2 Bdef|gagf e3d|e2B2 BABc|dedc BcdB|
e2B2 Bdef|gagf e3d|Bdeg fedf|e2f/e/d e3f|
g3e f3d|edBc d3e|dBAF GABc|dBAF GFED|
B,2E2 EFGA|B2e2 e3d|e2B2 BAGF|E2F/E/D E4||

